X:34
T:Házasodik a tücsök
O: Felsőiregh (Tolna)
Q: "Tánclépés"
L:1/4
K:F
d/c/B/A/ | G/A/ F | G/G/G/G/ | A A |
d/c/B/A/ | G/A/ F | D/D/C/C/ | D D |
C/E/C/E/ | F/F/F | G/G/G/G/ | A A |
d/c/B/A/ | G/A/ F | D/D/C/C/ | D D |

